X:89
T:The Keelman Ower Land
Z:Jack Campin, http://www.campin.me.uk/
S:Northumbrian Minstrelsy
M:6/8
L:1/8
K:G
d(3c/B/A/G d2g   |d(3c/B/A/G d2g   |ecA       gcA      |ecA    efg   |
dBG        GAB   |Bge        dBG   |A/B/c/B/A B/c/d/c/B|e2d    efg  :|
ddg        ddg   |ddg        dcB   |eea       eea      |eea    edc   | 
ddg        ddg   |Gge        dBG   |A/B/c/B/A B/c/d/c/B|e2d    efg  :|
d/B/GG     G/B/GG|d/B/GG     G/B/GG|e/c/AA    A/c/AA   |e/c/AA A/c/AA|
dBG        GAB   |Bge        dBG   |AcA       BdB      |e2d    efg  :|

